common/src/main/resources/files/plugins/datagrip/singlestoreFileType.svg

<!--
  - The MIT License (MIT)
  -
  - Copyright (c) 2015-2024 Elior "Mallowigi" Boukhobza
  -
  - Permission is hereby granted, free of charge, to any person obtaining a copy
  - of this software and associated documentation files (the "Software"), to deal
  - in the Software without restriction, including without limitation the rights
  - to use, copy, modify, merge, publish, distribute, sublicense, and/or sell
  - copies of the Software, and to permit persons to whom the Software is
  - furnished to do so, subject to the following conditions:
  -
  - The above copyright notice and this permission notice shall be included in all
  - copies or substantial portions of the Software.
  -
  - THE SOFTWARE IS PROVIDED "AS IS", WITHOUT WARRANTY OF ANY KIND, EXPRESS OR
  - IMPLIED, INCLUDING BUT NOT LIMITED TO THE WARRANTIES OF MERCHANTABILITY,
  - FITNESS FOR A PARTICULAR PURPOSE AND NONINFRINGEMENT. IN NO EVENT SHALL THE
  - AUTHORS OR COPYRIGHT HOLDERS BE LIABLE FOR ANY CLAIM, DAMAGES OR OTHER
  - LIABILITY, WHETHER IN AN ACTION OF CONTRACT, TORT OR OTHERWISE, ARISING FROM,
  - OUT OF OR IN CONNECTION WITH THE SOFTWARE OR THE USE OR OTHER DEALINGS IN THE
  - SOFTWARE.
  -->
<svg data-big="true" width="16px" height="16px" viewBox="0 0 16 16" fill="#A000F0" xmlns="http://www.w3.org/2000/svg">
  <path
    d="M8.31692 1C9.81681 1.41716 11.1834 2.4684 11.75 3.75323C12.6166 5.83903 12.4166 8.47545 11.4667 10.044C10.6667 11.3288 9.4335 12.013 8.01694 11.9963C5.81712 11.9796 4.03392 10.2275 4.01726 8.02492C4.01726 5.82234 5.75045 4.00353 8.01694 4.00353C8.38358 4.00353 8.91222 4.05438 9.51219 4.30467C9.51219 4.30467 9.08086 4.0492 7.97313 3.87759C4.79005 3.46044 1.03415 5.8724 1.90075 11.4289C3.10065 13.5648 5.40047 15.0165 8.01694 14.9999C11.8666 14.9831 15.0164 11.8294 14.9997 7.95818C14.9997 4.25382 11.9833 1.10012 8.31692 1Z"
  />
  <path
    d="M10.9334 3.95347C10.4001 2.83549 9.30018 1.95112 7.95028 1.6007C7.65029 1.51727 7.33365 1.4839 6.98368 1.46721C6.46706 1.46721 5.9671 1.53396 5.45047 1.66745C4.16723 2.05124 3.2673 2.80212 2.73401 3.38614C2.05073 4.17039 1.60077 4.98802 1.33412 5.80565C1.33412 5.82233 1.31745 5.83902 1.31745 5.8724C1.30079 5.93914 1.23413 6.13937 1.23413 6.18943C1.21746 6.2228 1.21746 6.27286 1.2008 6.30624C1.18413 6.37298 1.16747 6.43973 1.1508 6.50648C1.1508 6.52316 1.1508 6.53985 1.13414 6.55653C0.700836 8.70906 1.42065 10.6407 1.85395 11.3583C1.96233 11.5377 2.05133 11.6875 2.14052 11.8248C1.15726 6.48521 3.98391 3.93678 7.20034 3.87004C8.88353 3.83666 10.5667 4.5208 11.3833 5.88908C11.3333 5.1382 11.2834 4.72104 10.9334 3.95347Z"
  />
</svg>

<svg xmlns="http://www.w3.org/2000/svg" width="16" height="16" fill="#A000F0" data-big="true"><path d="M8.317 1c1.5.417 2.866 1.468 3.433 2.753.867 2.086.667 4.722-.283 6.291-.8 1.285-2.033 1.969-3.45 1.952-2.2-.016-3.983-1.769-4-3.971 0-2.203 1.733-4.021 4-4.021.367 0 .895.05 1.495.3 0 0-.431-.255-1.539-.426-3.183-.418-6.939 1.994-6.072 7.55C3.1 13.566 5.4 15.018 8.017 15c3.85-.017 7-3.17 6.983-7.042C15 4.254 11.983 1.1 8.317 1"/><path d="M10.933 3.953C10.4 2.835 9.3 1.951 7.95 1.601a4.4 4.4 0 0 0-.966-.134c-.517 0-1.017.067-1.534.2a6.06 6.06 0 0 0-2.716 1.72c-.683.783-1.133 1.601-1.4 2.419 0 .016-.017.033-.017.066-.016.067-.083.267-.083.317-.017.034-.017.084-.033.117l-.05.2c0 .017 0 .034-.017.05-.433 2.153.287 4.085.72 4.802.108.18.197.33.287.467-.984-5.34 1.843-7.888 5.06-7.955 1.683-.033 3.366.65 4.182 2.02-.05-.752-.1-1.169-.45-1.937"/></svg>
